TV/Source/Spartak TV HD - Dark.svg

<svg height="1.046586mm" viewBox="0 0 5.8314872 1.0465858" width="5.831487mm" xmlns="http://www.w3.org/2000/svg" xmlns:xlink="http://www.w3.org/1999/xlink"><clipPath id="a"><path d="m298.24 475.747h18.106v8.6h-18.106z"/></clipPath><g clip-path="url(#a)" transform="matrix(.35277777 0 0 -.35277777 -105.490466 169.873327)"><g transform="translate(309.8023 481.5307)"><path d="m0 0c .004-.047-.002-.096-.006-.145-.025-.343-.049-.71-.062-1.068.155.211.303.454.456.677.241-.002.49-.006.726.003-.167-.253-.344-.495-.524-.734.097-.18.208-.361.3-.536-.245.022-.486.047-.728.071-.079.141-.161.278-.233.425-.009-.129-.009-.266-.014-.399-.218.018-.431.041-.646.062.029.535.051 1.077.051 1.641.227-.001.457-.007.68.003" fill="#e2001a" fill-rule="evenodd"/></g><g transform="translate(306.6927 480.995)"><path d="m0 0c .111-.007.235-.001.352-.003-.003-.164-.014-.319-.012-.487h-.354c-.01-.124-.015-.252-.02-.38-.222.02-.443.042-.663.065.004.106.014.206.02.312-.075.006-.162.001-.241.003.009.159.014.324.019.487h.258c.013.097.014.206.023.306.211.045.425.086.632.134-.001-.139-.012-.291-.014-.437" fill="#e2001a" fill-rule="evenodd"/></g><g transform="translate(313.2861 481.4287)"><path d="m0 0c-.008-.142-.013-.288-.017-.434.333-.001.668-.006 1.003.003.085-.334.19-.647.25-1.006-.004.083.024.142.048.207.099.265.188.531.284.796.229-.002.463-.006.688.003-.228-.555-.48-1.086-.703-1.647-.236.005-.469.005-.705 0-.169.524-.342 1.044-.513 1.565-.009-.133-.012-.27-.012-.411h-.354c-.007-.142-.023-.311-.023-.459 0-.044.003-.101.02-.136.055-.112.259-.031.363-.017-.027-.169-.063-.329-.085-.502-.295-.076-.743-.11-.907.105-.09.117-.078.29-.068.479.009.175.029.354.037.527-.075.007-.162.001-.241.003.009.16.014.324.019.487h.258c.013.097.014.206.023.307.211.042.43.091.635.13" fill="#e2001a" fill-rule="evenodd"/></g><g transform="translate(302.455 480.5386)"><path d="m0 0c-.602.057-1.199.12-1.803.176.006.092.002.195.003.292.249.043.51.069.794.082.254.012.505-.024.671-.111.176-.091.274-.248.335-.439" fill="#e2001a" fill-rule="evenodd"/></g><g transform="translate(300.3885 481.0262)"><path d="m0 0c .002-.098.011-.189.014-.286-.393.039-.787.078-1.182.116-.003.018.02.034.034.051.102.117.269.167.482.179.227.011.463-.026.652-.06" fill="#e2001a" fill-rule="evenodd"/></g><g transform="translate(304.3088 480.3544)"><path d="m0 0c-.296.031-.593.061-.893.088.075.032.209.027.213.122.002.06-.058.088-.114.093-.272.024-.54-.094-.737-.147.023.147.044.296.063.448.218.053.467.089.734.102.387.018.747-.08.748-.462 0-.077-.01-.153-.014-.244" fill="#e2001a" fill-rule="evenodd"/></g><g transform="translate(308.8017 479.9122)"><path d="m0 0c-.215.023-.434.042-.649.065.003.03.004.062.006.094-.008.005-.015-.008-.02-.012-.026-.018-.063-.03-.102-.042-.025-.008-.052-.018-.071-.02-.03-.003-.068.005-.105.009-.23.02-.485.048-.706.07-.004.01.007.02.011.026.147.209.423.268.726.332.087.018.257.041.258.133.001.059-.058.086-.116.09-.274.022-.526-.09-.734-.147.023.147.043.297.062.448.233.055.462.089.734.102.314.015.627-.057.717-.278.023-.055.031-.12.032-.181.002-.227-.041-.441-.043-.689" fill="#e2001a" fill-rule="evenodd"/></g><g transform="translate(305.7403 481.029)"><path d="m0 0c0-.198.011-.386.02-.575-.078.013-.155.028-.238.022-.151-.01-.234-.104-.284-.212-.225.023-.453.043-.677.068.008.217.008.456.003.677.219-.005.438-.006.657 0-.005-.051-.003-.109-.008-.159.062.159.308.236.527.179" fill="#e2001a" fill-rule="evenodd"/></g><g transform="translate(299.1441 480.6208)"><path d="m0 0c .227-.018.452-.038.68-.054.01-.008-.003-.024 0-.042.006-.03.069-.07.102-.094.179-.129.42-.25.451-.519.014-.119-.019-.223-.076-.303-.213-.294-.807-.282-1.228-.17-.011.177-.032.344-.045.519.168-.034.307-.132.53-.117.054.004.136.023.139.074.002.036-.043.066-.071.088-.087.066-.185.137-.264.204-.114.098-.223.208-.221.405 0 .005 0 .009.003.009" fill="#e2001a" fill-rule="evenodd"/></g><g transform="translate(312.053 479.5919)"><path d="m0 0c-.345.034-.69.068-1.035.102-.109.186-.077.462.02.618.098.156.271.283.493.298.286.018.485-.143.587-.326.056-.101.089-.235.071-.375-.017-.13-.065-.234-.136-.317" fill-rule="evenodd"/></g><g transform="translate(300.6521 480.4989)"><path d="m0 0c .217-.016.431-.036.649-.051-.04-.265-.003-.533.213-.575.013-.003.046-.006.071-.003.215.022.288.302.226.535.23-.018.461-.034.686-.056.028-.372-.087-.675-.3-.845-.108-.086-.26-.146-.439-.139-.162.007-.334.051-.443.133-.022.017-.035.037-.054.063-.009-.293-.023-.579-.025-.879-.228.004-.463.003-.692 0 .05.588.086 1.19.105 1.808 0 .005 0 .009.003.009" fill="#e2001a" fill-rule="evenodd"/></g><g transform="translate(304.2975 480.207)"><path d="m0 0c-.019-.27-.029-.55-.037-.831-.221.007-.448.007-.669 0 .017.23.034.46.046.695-.011.002-.016-.009-.023-.014-.009-.006-.02-.013-.031-.017-.096-.038-.246-.057-.321-.116-.014-.012-.037-.037-.042-.054-.016-.052.008-.095.04-.114.081-.049.22.004.303.014-.038-.136-.077-.271-.114-.408-.35-.064-.675-.018-.81.204-.047.076-.083.165-.082.272.001.249.177.395.357.471.037.016.13-.001.187-.006.391-.031.803-.068 1.196-.096" fill="#e2001a" fill-rule="evenodd"/></g><g transform="translate(304.5583 480.1843)"><path d="m0 0c .217-.016.431-.036.649-.051-.026-.235-.028-.517-.017-.771-.227.007-.459.006-.686 0 .016.273.037.539.051.814 0 .004 0 .008.003.008" fill="#e2001a" fill-rule="evenodd"/></g><g transform="translate(305.9897 480.0681)"><path d="m0 0c .225-.014.441-.037.666-.051.006-.044.007-.082.023-.111.057-.105.258-.029.36-.014-.027-.168-.063-.329-.085-.501-.336-.086-.829-.117-.95.178-.052.127-.031.327-.017.493-.001.006.002.011.003.006" fill="#e2001a" fill-rule="evenodd"/></g><g transform="translate(307.1066 479.9802)"><path d="m0 0c .223-.019.446-.038.672-.054.008-.013-.012-.019-.017-.025-.031-.038-.03-.111.014-.142.081-.057.22.002.309.011-.038-.136-.077-.271-.113-.408-.233-.042-.514-.037-.675.062-.15.093-.262.304-.196.547 0 .005.002.008.006.009" fill="#e2001a" fill-rule="evenodd"/></g><g transform="translate(308.1526 479.8951)"><path d="m0 0c .216-.017.429-.036.646-.051-.009-.153-.011-.312-.017-.468-.222.007-.449.006-.672 0 .018.165.029.337.037.511 0 .004.002.007.006.008" fill="#e2001a" fill-rule="evenodd"/></g><g transform="translate(309.0682 479.8214)"><path d="m0 0c .217-.017.43-.036.649-.051-.004-.138-.006-.278-.006-.42-.224.005-.458.004-.683 0 .014.153.029.305.037.462 0 .005 0 .009.003.009" fill="#e2001a" fill-rule="evenodd"/></g><g transform="translate(309.9922 479.7449)"><path d="m0 0c .179-.011.427-.032.632-.048.032-.003.071-.001.088-.009.018-.008.039-.056.054-.082.051-.088.098-.175.142-.255-.234.004-.478.004-.712 0-.073.126-.131.268-.204.394" fill="#e2001a" fill-rule="evenodd"/></g><g transform="translate(311.0383 479.6599)"><path d="m0 0c .33-.018.667-.053 1.001-.077.008-.011-.01-.017-.015-.022-.1-.116-.282-.218-.51-.196-.224.022-.376.142-.47.289-.003.001-.002.006-.006.006" fill-rule="evenodd"/></g><g transform="translate(312.9203 478.566)"><path d="m0 0 .213-.002.015.573h.499c-.006-.218-.016-.409-.031-.573.113.001.184.002.214.002l.2-.002c0 .241.003.448.009.621.006.172.02.436.042.79-.105-.001-.169-.002-.192-.002l-.217.002c.001-.046.002-.079.002-.097 0-.036-.001-.101-.004-.198-.003-.096-.006-.172-.009-.229h-.498c.004.152.013.326.028.524-.092-.001-.157-.002-.194-.002-.048 0-.12.001-.216.002l.001-.099c0-.049-.001-.1-.002-.153l-.004-.183-.017-.412-.035-.564c.104.001.169.002.196.002m1.506.001.37-.003c.084 0 .159.004.225.012.059.008.106.018.14.03.034.013.068.03.102.052.045.03.085.065.12.107s.066.091.092.149.047.123.061.195c.015.072.022.147.022.225 0 .079-.009.156-.028.231s-.046.14-.082.196-.081.101-.135.135c-.053.035-.11.058-.172.069s-.133.016-.215.016c-.072 0-.148-.001-.229-.004s-.147-.005-.197-.005c-.052 0-.114.001-.185.003v-.121c0-.074-.003-.196-.008-.367-.008-.223-.015-.405-.022-.546-.005-.094-.015-.22-.028-.377.078.002.135.003.169.003m.258 1.105c.06.004.112.006.155.006.076 0 .135-.011.179-.033.043-.022.078-.061.104-.117.027-.056.04-.125.04-.207 0-.067-.009-.133-.027-.196-.017-.064-.045-.116-.082-.157s-.079-.067-.128-.079c-.049-.013-.105-.019-.167-.019-.036 0-.072.002-.105.005z"/></g></g></svg>

<?xml version="1.0" encoding="UTF-8" standalone="no"?>
<!-- Created with Inkscape (http://www.inkscape.org/) -->

<svg
   xmlns:dc="http://purl.org/dc/elements/1.1/"
   xmlns:cc="http://creativecommons.org/ns#"
   xmlns:rdf="http://www.w3.org/1999/02/22-rdf-syntax-ns#"
   xmlns:svg="http://www.w3.org/2000/svg"
   xmlns="http://www.w3.org/2000/svg"
   xmlns:sodipodi="http://sodipodi.sourceforge.net/DTD/sodipodi-0.dtd"
   xmlns:inkscape="http://www.inkscape.org/namespaces/inkscape"
   width="5.8314872mm"
   height="1.0465858mm"
   viewBox="0 0 5.8314872 1.0465858"
   version="1.1"
   id="svg51579"
   inkscape:version="0.92.0 r15299"
   sodipodi:docname="Spartak TV HD - Dark.svg">
  <defs
     id="defs51573">
    <clipPath
       clipPathUnits="userSpaceOnUse"
       id="clipPath19670">
      <path
         d="m 298.24,475.747 h 18.106 v 8.6 H 298.24 Z"
         id="path19668"
         inkscape:connector-curvature="0" />
    </clipPath>
  </defs>
  <sodipodi:namedview
     id="base"
     pagecolor="#ffffff"
     bordercolor="#666666"
     borderopacity="1.0"
     inkscape:pageopacity="0.0"
     inkscape:pageshadow="2"
     inkscape:zoom="31.678384"
     inkscape:cx="8.9317707"
     inkscape:cy="0.33611685"
     inkscape:document-units="mm"
     inkscape:current-layer="layer1"
     showgrid="false"
     fit-margin-top="0"
     fit-margin-left="0"
     fit-margin-right="0"
     fit-margin-bottom="0"
     inkscape:window-width="1920"
     inkscape:window-height="1017"
     inkscape:window-x="-8"
     inkscape:window-y="-8"
     inkscape:window-maximized="1" />
  <metadata
     id="metadata51576">
    <rdf:RDF>
      <cc:Work
         rdf:about="">
        <dc:format>image/svg+xml</dc:format>
        <dc:type
           rdf:resource="http://purl.org/dc/dcmitype/StillImage" />
        <dc:title></dc:title>
      </cc:Work>
    </rdf:RDF>
  </metadata>
  <g
     inkscape:label="Layer 1"
     inkscape:groupmode="layer"
     id="layer1"
     transform="translate(50.540744,-86.321943)">
    <g
       transform="matrix(0.35277777,0,0,-0.35277777,-156.03121,256.19527)"
       id="g19664">
      <g
         id="g19666"
         clip-path="url(#clipPath19670)">
        <g
           id="g19672"
           transform="translate(309.8023,481.5307)">
          <path
             d="m 0,0 c 0.004,-0.047 -0.002,-0.096 -0.006,-0.145 -0.025,-0.343 -0.049,-0.71 -0.062,-1.068 0.155,0.211 0.303,0.454 0.456,0.677 0.241,-0.002 0.49,-0.006 0.726,0.003 C 0.947,-0.786 0.77,-1.028 0.59,-1.267 c 0.097,-0.18 0.208,-0.361 0.3,-0.536 -0.245,0.022 -0.486,0.047 -0.728,0.071 -0.079,0.141 -0.161,0.278 -0.233,0.425 -0.009,-0.129 -0.009,-0.266 -0.014,-0.399 -0.218,0.018 -0.431,0.041 -0.646,0.062 0.029,0.535 0.051,1.077 0.051,1.641 C -0.453,-0.004 -0.223,-0.01 0,0"
             style="fill:#e2001a;fill-opacity:1;fill-rule:evenodd;stroke:none"
             id="path19674"
             inkscape:connector-curvature="0" />
        </g>
        <g
           id="g19676"
           transform="translate(306.6927,480.995)">
          <path
             d="M 0,0 C 0.111,-0.007 0.235,-0.001 0.352,-0.003 0.349,-0.167 0.338,-0.322 0.34,-0.49 h -0.354 c -0.01,-0.124 -0.015,-0.252 -0.02,-0.38 -0.222,0.02 -0.443,0.042 -0.663,0.065 0.004,0.106 0.014,0.206 0.02,0.312 -0.075,0.006 -0.162,0.001 -0.241,0.003 0.009,0.159 0.014,0.324 0.019,0.487 h 0.258 c 0.013,0.097 0.014,0.206 0.023,0.306 0.211,0.045 0.425,0.086 0.632,0.134 C 0.013,0.298 0.002,0.146 0,0"
             style="fill:#e2001a;fill-opacity:1;fill-rule:evenodd;stroke:none"
             id="path19678"
             inkscape:connector-curvature="0" />
        </g>
        <g
           id="g19680"
           transform="translate(313.2861,481.4287)">
          <path
             d="m 0,0 c -0.008,-0.142 -0.013,-0.288 -0.017,-0.434 0.333,-0.001 0.668,-0.006 1.003,0.003 0.085,-0.334 0.19,-0.647 0.25,-1.006 -0.004,0.083 0.024,0.142 0.048,0.207 0.099,0.265 0.188,0.531 0.284,0.796 0.229,-0.002 0.463,-0.006 0.688,0.003 -0.228,-0.555 -0.48,-1.086 -0.703,-1.647 -0.236,0.005 -0.469,0.005 -0.705,0 -0.169,0.524 -0.342,1.044 -0.513,1.565 -0.009,-0.133 -0.012,-0.27 -0.012,-0.411 h -0.354 c -0.007,-0.142 -0.023,-0.311 -0.023,-0.459 0,-0.044 0.003,-0.101 0.02,-0.136 0.055,-0.112 0.259,-0.031 0.363,-0.017 -0.027,-0.169 -0.063,-0.329 -0.085,-0.502 -0.295,-0.076 -0.743,-0.11 -0.907,0.105 -0.09,0.117 -0.078,0.29 -0.068,0.479 0.009,0.175 0.029,0.354 0.037,0.527 -0.075,0.007 -0.162,0.001 -0.241,0.003 0.009,0.16 0.014,0.324 0.019,0.487 h 0.258 c 0.013,0.097 0.014,0.206 0.023,0.307 0.211,0.042 0.43,0.091 0.635,0.13"
             style="fill:#e2001a;fill-opacity:1;fill-rule:evenodd;stroke:none"
             id="path19682"
             inkscape:connector-curvature="0" />
        </g>
        <g
           id="g19684"
           transform="translate(302.455,480.5386)">
          <path
             d="m 0,0 c -0.602,0.057 -1.199,0.12 -1.803,0.176 0.006,0.092 0.002,0.195 0.003,0.292 0.249,0.043 0.51,0.069 0.794,0.082 0.254,0.012 0.505,-0.024 0.671,-0.111 C -0.159,0.348 -0.061,0.191 0,0"
             style="fill:#e2001a;fill-opacity:1;fill-rule:evenodd;stroke:none"
             id="path19686"
             inkscape:connector-curvature="0" />
        </g>
        <g
           id="g19688"
           transform="translate(300.3885,481.0262)">
          <path
             d="m 0,0 c 0.002,-0.098 0.011,-0.189 0.014,-0.286 -0.393,0.039 -0.787,0.078 -1.182,0.116 -0.003,0.018 0.02,0.034 0.034,0.051 0.102,0.117 0.269,0.167 0.482,0.179 C -0.425,0.071 -0.189,0.034 0,0"
             style="fill:#e2001a;fill-opacity:1;fill-rule:evenodd;stroke:none"
             id="path19690"
             inkscape:connector-curvature="0" />
        </g>
        <g
           id="g19692"
           transform="translate(304.3088,480.3544)">
          <path
             d="m 0,0 c -0.296,0.031 -0.593,0.061 -0.893,0.088 0.075,0.032 0.209,0.027 0.213,0.122 0.002,0.06 -0.058,0.088 -0.114,0.093 -0.272,0.024 -0.54,-0.094 -0.737,-0.147 0.023,0.147 0.044,0.296 0.063,0.448 0.218,0.053 0.467,0.089 0.734,0.102 C -0.347,0.724 0.013,0.626 0.014,0.244 0.014,0.167 0.004,0.091 0,0"
             style="fill:#e2001a;fill-opacity:1;fill-rule:evenodd;stroke:none"
             id="path19694"
             inkscape:connector-curvature="0" />
        </g>
        <g
           id="g19696"
           transform="translate(308.8017,479.9122)">
          <path
             d="m 0,0 c -0.215,0.023 -0.434,0.042 -0.649,0.065 0.003,0.03 0.004,0.062 0.006,0.094 C -0.651,0.164 -0.658,0.151 -0.663,0.147 -0.689,0.129 -0.726,0.117 -0.765,0.105 -0.79,0.097 -0.817,0.087 -0.836,0.085 -0.866,0.082 -0.904,0.09 -0.941,0.094 c -0.23,0.02 -0.485,0.048 -0.706,0.07 -0.004,0.01 0.007,0.02 0.011,0.026 0.147,0.209 0.423,0.268 0.726,0.332 0.087,0.018 0.257,0.041 0.258,0.133 0.001,0.059 -0.058,0.086 -0.116,0.09 -0.274,0.022 -0.526,-0.09 -0.734,-0.147 0.023,0.147 0.043,0.297 0.062,0.448 0.233,0.055 0.462,0.089 0.734,0.102 C -0.392,1.163 -0.079,1.091 0.011,0.87 0.034,0.815 0.042,0.75 0.043,0.689 0.045,0.462 0.002,0.248 0,0"
             style="fill:#e2001a;fill-opacity:1;fill-rule:evenodd;stroke:none"
             id="path19698"
             inkscape:connector-curvature="0" />
        </g>
        <g
           id="g19700"
           transform="translate(305.7403,481.029)">
          <path
             d="m 0,0 c 0,-0.198 0.011,-0.386 0.02,-0.575 -0.078,0.013 -0.155,0.028 -0.238,0.022 -0.151,-0.01 -0.234,-0.104 -0.284,-0.212 -0.225,0.023 -0.453,0.043 -0.677,0.068 0.008,0.217 0.008,0.456 0.003,0.677 0.219,-0.005 0.438,-0.006 0.657,0 C -0.524,-0.071 -0.522,-0.129 -0.527,-0.179 -0.465,-0.02 -0.219,0.057 0,0"
             style="fill:#e2001a;fill-opacity:1;fill-rule:evenodd;stroke:none"
             id="path19702"
             inkscape:connector-curvature="0" />
        </g>
        <g
           id="g19704"
           transform="translate(299.1441,480.6208)">
          <path
             d="m 0,0 c 0.227,-0.018 0.452,-0.038 0.68,-0.054 0.01,-0.008 -0.003,-0.024 0,-0.042 0.006,-0.03 0.069,-0.07 0.102,-0.094 0.179,-0.129 0.42,-0.25 0.451,-0.519 0.014,-0.119 -0.019,-0.223 -0.076,-0.303 -0.213,-0.294 -0.807,-0.282 -1.228,-0.17 -0.011,0.177 -0.032,0.344 -0.045,0.519 0.168,-0.034 0.307,-0.132 0.53,-0.117 0.054,0.004 0.136,0.023 0.139,0.074 0.002,0.036 -0.043,0.066 -0.071,0.088 -0.087,0.066 -0.185,0.137 -0.264,0.204 -0.114,0.098 -0.223,0.208 -0.221,0.405 0,0.005 0,0.009 0.003,0.009"
             style="fill:#e2001a;fill-opacity:1;fill-rule:evenodd;stroke:none"
             id="path19706"
             inkscape:connector-curvature="0" />
        </g>
        <g
           id="g19708"
           transform="translate(312.053,479.5919)">
          <path
             d="m 0,0 c -0.345,0.034 -0.69,0.068 -1.035,0.102 -0.109,0.186 -0.077,0.462 0.02,0.618 0.098,0.156 0.271,0.283 0.493,0.298 C -0.236,1.036 -0.037,0.875 0.065,0.692 0.121,0.591 0.154,0.457 0.136,0.317 0.119,0.187 0.071,0.083 0,0"
             style="fill:#000000;fill-opacity:1;fill-rule:evenodd;stroke:none"
             id="path19710"
             inkscape:connector-curvature="0" />
        </g>
        <g
           id="g19712"
           transform="translate(300.6521,480.4989)">
          <path
             d="M 0,0 C 0.217,-0.016 0.431,-0.036 0.649,-0.051 0.609,-0.316 0.646,-0.584 0.862,-0.626 0.875,-0.629 0.908,-0.632 0.933,-0.629 1.148,-0.607 1.221,-0.327 1.159,-0.094 1.389,-0.112 1.62,-0.128 1.845,-0.15 1.873,-0.522 1.758,-0.825 1.545,-0.995 1.437,-1.081 1.285,-1.141 1.106,-1.134 0.944,-1.127 0.772,-1.083 0.663,-1.001 0.641,-0.984 0.628,-0.964 0.609,-0.938 0.6,-1.231 0.586,-1.517 0.584,-1.817 c -0.228,0.004 -0.463,0.003 -0.692,0 0.05,0.588 0.086,1.19 0.105,1.808 0,0.005 0,0.009 0.003,0.009"
             style="fill:#e2001a;fill-opacity:1;fill-rule:evenodd;stroke:none"
             id="path19714"
             inkscape:connector-curvature="0" />
        </g>
        <g
           id="g19716"
           transform="translate(304.2975,480.207)">
          <path
             d="m 0,0 c -0.019,-0.27 -0.029,-0.55 -0.037,-0.831 -0.221,0.007 -0.448,0.007 -0.669,0 0.017,0.23 0.034,0.46 0.046,0.695 -0.011,0.002 -0.016,-0.009 -0.023,-0.014 -0.009,-0.006 -0.02,-0.013 -0.031,-0.017 -0.096,-0.038 -0.246,-0.057 -0.321,-0.116 -0.014,-0.012 -0.037,-0.037 -0.042,-0.054 -0.016,-0.052 0.008,-0.095 0.04,-0.114 0.081,-0.049 0.22,0.004 0.303,0.014 -0.038,-0.136 -0.077,-0.271 -0.114,-0.408 -0.35,-0.064 -0.675,-0.018 -0.81,0.204 -0.047,0.076 -0.083,0.165 -0.082,0.272 10e-4,0.249 0.177,0.395 0.357,0.471 0.037,0.016 0.13,-10e-4 0.187,-0.006 C -0.805,0.065 -0.393,0.028 0,0"
             style="fill:#e2001a;fill-opacity:1;fill-rule:evenodd;stroke:none"
             id="path19718"
             inkscape:connector-curvature="0" />
        </g>
        <g
           id="g19720"
           transform="translate(304.5583,480.1843)">
          <path
             d="M 0,0 C 0.217,-0.016 0.431,-0.036 0.649,-0.051 0.623,-0.286 0.621,-0.568 0.632,-0.822 c -0.227,0.007 -0.459,0.006 -0.686,0 0.016,0.273 0.037,0.539 0.051,0.814 0,0.004 0,0.008 0.003,0.008"
             style="fill:#e2001a;fill-opacity:1;fill-rule:evenodd;stroke:none"
             id="path19722"
             inkscape:connector-curvature="0" />
        </g>
        <g
           id="g19724"
           transform="translate(305.9897,480.0681)">
          <path
             d="M 0,0 C 0.225,-0.014 0.441,-0.037 0.666,-0.051 0.672,-0.095 0.673,-0.133 0.689,-0.162 0.746,-0.267 0.947,-0.191 1.049,-0.176 1.022,-0.344 0.986,-0.505 0.964,-0.677 0.628,-0.763 0.135,-0.794 0.014,-0.499 -0.038,-0.372 -0.017,-0.172 -0.003,-0.006 -0.004,0 -0.001,0.005 0,0"
             style="fill:#e2001a;fill-opacity:1;fill-rule:evenodd;stroke:none"
             id="path19726"
             inkscape:connector-curvature="0" />
        </g>
        <g
           id="g19728"
           transform="translate(307.1066,479.9802)">
          <path
             d="M 0,0 C 0.223,-0.019 0.446,-0.038 0.672,-0.054 0.68,-0.067 0.66,-0.073 0.655,-0.079 0.624,-0.117 0.625,-0.19 0.669,-0.221 0.75,-0.278 0.889,-0.219 0.978,-0.21 0.94,-0.346 0.901,-0.481 0.865,-0.618 0.632,-0.66 0.351,-0.655 0.19,-0.556 c -0.15,0.093 -0.262,0.304 -0.196,0.547 0,0.005 0.002,0.008 0.006,0.009"
             style="fill:#e2001a;fill-opacity:1;fill-rule:evenodd;stroke:none"
             id="path19730"
             inkscape:connector-curvature="0" />
        </g>
        <g
           id="g19732"
           transform="translate(308.1526,479.8951)">
          <path
             d="M 0,0 C 0.216,-0.017 0.429,-0.036 0.646,-0.051 0.637,-0.204 0.635,-0.363 0.629,-0.519 c -0.222,0.007 -0.449,0.006 -0.672,0 0.018,0.165 0.029,0.337 0.037,0.511 0,0.004 0.002,0.007 0.006,0.008"
             style="fill:#e2001a;fill-opacity:1;fill-rule:evenodd;stroke:none"
             id="path19734"
             inkscape:connector-curvature="0" />
        </g>
        <g
           id="g19736"
           transform="translate(309.0682,479.8214)">
          <path
             d="m 0,0 c 0.217,-0.017 0.43,-0.036 0.649,-0.051 -0.004,-0.138 -0.006,-0.278 -0.006,-0.42 -0.224,0.005 -0.458,0.004 -0.683,0 0.014,0.153 0.029,0.305 0.037,0.462 0,0.005 0,0.009 0.003,0.009"
             style="fill:#e2001a;fill-opacity:1;fill-rule:evenodd;stroke:none"
             id="path19738"
             inkscape:connector-curvature="0" />
        </g>
        <g
           id="g19740"
           transform="translate(309.9922,479.7449)">
          <path
             d="M 0,0 C 0.179,-0.011 0.427,-0.032 0.632,-0.048 0.664,-0.051 0.703,-0.049 0.72,-0.057 0.738,-0.065 0.759,-0.113 0.774,-0.139 0.825,-0.227 0.872,-0.314 0.916,-0.394 0.682,-0.39 0.438,-0.39 0.204,-0.394 0.131,-0.268 0.073,-0.126 0,0"
             style="fill:#e2001a;fill-opacity:1;fill-rule:evenodd;stroke:none"
             id="path19742"
             inkscape:connector-curvature="0" />
        </g>
        <g
           id="g19744"
           transform="translate(311.0383,479.6599)">
          <path
             d="M 0,0 C 0.33,-0.018 0.667,-0.053 1.001,-0.077 1.009,-0.088 0.991,-0.094 0.986,-0.099 0.886,-0.215 0.704,-0.317 0.476,-0.295 0.252,-0.273 0.1,-0.153 0.006,-0.006 0.003,-0.005 0.004,0 0,0"
             style="fill:#000000;fill-opacity:1;fill-rule:evenodd;stroke:none"
             id="path19746"
             inkscape:connector-curvature="0" />
        </g>
        <g
           id="g19748"
           transform="translate(312.9203,478.566)">
          <path
             d="M 0,0 0.213,-0.002 0.228,0.571 H 0.727 C 0.721,0.353 0.711,0.162 0.696,-0.002 0.809,-0.001 0.88,0 0.91,0 l 0.2,-0.002 c 0,0.241 0.003,0.448 0.009,0.621 0.006,0.172 0.02,0.436 0.042,0.79 C 1.056,1.408 0.992,1.407 0.969,1.407 L 0.752,1.409 C 0.753,1.363 0.754,1.33 0.754,1.312 0.754,1.276 0.753,1.211 0.75,1.114 0.747,1.018 0.744,0.942 0.741,0.885 H 0.243 C 0.247,1.037 0.256,1.211 0.271,1.409 0.179,1.408 0.114,1.407 0.077,1.407 c -0.048,0 -0.12,10e-4 -0.216,0.002 L -0.138,1.31 c 0,-0.049 -0.001,-0.1 -0.002,-0.153 L -0.144,0.974 -0.161,0.562 -0.196,-0.002 C -0.092,-0.001 -0.027,0 0,0 m 1.506,0.001 0.37,-0.003 c 0.084,0 0.159,0.004 0.225,0.012 0.059,0.008 0.106,0.018 0.14,0.03 0.034,0.013 0.068,0.03 0.102,0.052 0.045,0.03 0.085,0.065 0.12,0.107 C 2.498,0.241 2.529,0.29 2.555,0.348 2.581,0.406 2.602,0.471 2.616,0.543 2.631,0.615 2.638,0.69 2.638,0.768 2.638,0.847 2.629,0.924 2.61,0.999 2.591,1.074 2.564,1.139 2.528,1.195 2.492,1.251 2.447,1.296 2.393,1.33 2.34,1.365 2.283,1.388 2.221,1.399 2.159,1.41 2.088,1.415 2.006,1.415 1.934,1.415 1.858,1.414 1.777,1.411 1.696,1.408 1.63,1.406 1.58,1.406 1.528,1.406 1.466,1.407 1.395,1.409 V 1.288 C 1.395,1.214 1.392,1.092 1.387,0.921 1.379,0.698 1.372,0.516 1.365,0.375 1.36,0.281 1.35,0.155 1.337,-0.002 1.415,0 1.472,0.001 1.506,0.001 M 1.764,1.106 C 1.824,1.11 1.876,1.112 1.919,1.112 1.995,1.112 2.054,1.101 2.098,1.079 2.141,1.057 2.176,1.018 2.202,0.962 2.229,0.906 2.242,0.837 2.242,0.755 2.242,0.688 2.233,0.622 2.215,0.559 2.198,0.495 2.17,0.443 2.133,0.402 2.096,0.361 2.054,0.335 2.005,0.323 1.956,0.31 1.9,0.304 1.838,0.304 1.802,0.304 1.766,0.306 1.733,0.309 Z"
             style="fill:#000000;fill-opacity:1;fill-rule:nonzero;stroke:none"
             id="path19750"
             inkscape:connector-curvature="0" />
        </g>
      </g>
    </g>
  </g>
</svg>
